X: 155
U:~=!turn!
M:C
L:1/8
K:D
E | D/2D/2D TB2 (A>F) {/F}A2 | G<E {/B}=c2 E<=CC>E | D/2D/2D TB2 A>F {/F}A2 | A,<A, A,>A, {/B,}D2 D ::
E | D/2D/2D {/c}d>D F>D d>D | =C/2C/2C =c>Ec>E c>E | D/2D/2D | {/c}d>D F>D {/c}d>D | A,<A, A,>B, D3 E |


